X: 43202
T: Wissahickon Drive
R: reel
M: 4/4
K: Amajor
EFAB cBAB|ceef ecBA|F2dF eFde|fedf ecBA|
EFAB cBAB|ceef ecBA|~f2af eAcA|1 BAGB ~A3F:|2 BAGB ABce||
|:a2ga baga|~f2de fagf|e2ce aece|aedc B2ce|
a2ga baga|~f2de fagf|e2ce aedc|1 BABc ABce:|2 BABc A2F2||

